icons/linear-ele-location-position.svg

<svg xmlns="http://www.w3.org/2000/svg" width="32px" height="32px" viewBox="0 0 32 32" version="1.1">
    <title>linear-ele-location-position</title>
    <g id="linear-ele-location-position" stroke-width="1" fill-rule="evenodd">
        <path d="M27.6153846,3.07692308 C28.4178564,2.74255983 29.2353513,3.52076423 28.9408874,4.33871947 L19.9408874,29.3387195 C19.6110763,30.2548615 18.2995746,30.2072679 18.037036,29.2696299 L14.699,17.349 L3.78757036,14.9771764 C2.87281425,14.7783163 2.72394545,13.5656708 3.50333527,13.1311802 L3.61538462,13.0769231 L27.6153846,3.07692308 Z M26.291,5.795 L7.323,13.698 L15.7124296,15.5228236 C16.0341149,15.5927552 16.2980307,15.8156294 16.42284,16.114768 L16.462964,16.2303701 L19.119,25.718 L26.291,5.795 Z" id="&#36335;&#24452;" fill-rule="nonzero" />
    </g>
</svg>

<svg xmlns="http://www.w3.org/2000/svg" viewBox="0 0 32 32"><path fill="currentColor" d="M27.615 3.077c.803-.334 1.62.444 1.326 1.262l-9 25c-.33.916-1.641.868-1.904-.07l-3.338-11.92-10.911-2.372c-.915-.199-1.064-1.411-.285-1.846l.112-.054zm-1.324 2.718L7.323 13.698l8.39 1.825a1 1 0 0 1 .71.592l.04.115 2.656 9.488z"/></svg>
